monitoring/grafana/branding/demos-logo-morph.svg

<svg width="190" height="50" viewBox="0 0 190 50" fill="none" xmlns="http://www.w3.org/2000/svg">
<g id="LOGO Morph">
<g id="Group">
<path id="Vector" d="M62.2578 41.0316L62.2578 11.8168L69.1507 11.8168L77.4758 40.0978L78.4158 40.0978L86.7857 11.8168L93.6338 11.8168L93.6338 41.0316L90.2321 41.0316L90.2321 15.1963L90.814 12.7507L89.8293 12.7507L81.4146 41.0316L74.5217 41.0316L66.1071 12.7507L65.1671 12.7507L65.7042 15.1963L65.7042 41.0316L62.2578 41.0316Z" fill="white"/>
<path id="Vector_2" d="M98.3335 30.7152C98.3335 27.6915 99.3629 25.1124 101.377 23.0669C103.391 21.0215 106.032 19.9987 109.299 19.9987C112.522 19.9987 115.163 21.0215 117.177 23.0669C119.191 25.1124 120.221 27.647 120.221 30.7152C120.221 33.7835 119.191 36.3181 117.177 38.3635C115.163 40.409 112.522 41.4318 109.299 41.4318C106.032 41.4318 103.391 40.409 101.377 38.3635C99.3182 36.3181 98.3335 33.7835 98.3335 30.7152ZM101.735 30.7152C101.735 32.983 102.407 34.8507 103.749 36.3181C105.092 37.7855 106.927 38.5414 109.299 38.5414C111.672 38.5414 113.507 37.7855 114.85 36.3181C116.192 34.8062 116.819 32.9386 116.819 30.7152C116.819 28.4919 116.148 26.6243 114.85 25.1569C113.507 23.6895 111.672 22.9335 109.299 22.9335C106.927 22.9335 105.092 23.6895 103.749 25.1569C102.407 26.6243 101.735 28.4919 101.735 30.7152Z" fill="white"/>
<path id="Vector_3" d="M124.92 41.0316L124.92 22.8891C124.92 20.9325 125.86 19.9987 127.785 20.0877L139.288 20.4434L139.288 23.3338L128.322 22.978L128.322 41.0316L124.92 41.0316Z" fill="white"/>
<path id="Vector_4" d="M143.361 20.4434L146.762 20.4434L146.762 23.4671L146.225 25.8239L147.165 25.8239C147.658 24.0897 148.597 22.7112 149.985 21.644C151.417 20.5768 153.252 20.0432 155.535 20.0432C158.489 20.0432 160.861 21.0659 162.696 23.0669C164.532 25.0679 165.427 27.647 165.427 30.7597C165.427 33.8724 164.532 36.407 162.696 38.408C160.861 40.409 158.489 41.4317 155.535 41.4317C153.297 41.4317 151.417 40.8981 149.985 39.8309C148.553 38.7637 147.613 37.3852 147.12 35.651L146.18 35.651L146.718 37.9633L146.718 48.5464L143.316 48.5464L143.316 20.4434L143.361 20.4434ZM146.762 30.7597C146.762 33.3388 147.478 35.2953 148.956 36.5848C150.433 37.8744 152.268 38.5414 154.55 38.5414C156.788 38.5414 158.623 37.8744 159.966 36.5848C161.309 35.2953 162.025 33.3388 162.025 30.7597C162.025 28.1806 161.354 26.2241 159.966 24.8901C158.623 23.556 156.788 22.9335 154.55 22.9335C152.268 22.9335 150.388 23.6005 148.956 24.8901C147.478 26.1796 146.762 28.1361 146.762 30.7597Z" fill="white"/>
<path id="Vector_5" d="M182.256 19.9987C184.673 19.9987 186.553 20.7102 187.941 22.1331C189.284 23.5561 190 25.646 190 28.4474L190 41.0316L186.598 41.0316L186.598 28.8921C186.598 26.7577 186.195 25.2458 185.345 24.312C184.494 23.3782 183.152 22.9336 181.361 22.9336C179.123 22.9336 177.333 23.734 175.945 25.3792C174.558 27.0245 173.887 29.2034 173.887 31.9158L173.887 41.0316L170.485 41.0316L170.485 10.5718L173.887 10.5718L173.887 24.0008L173.349 26.3575L174.289 26.3575C174.737 24.4454 175.632 22.8891 176.975 21.7329C178.318 20.5768 180.063 19.9987 182.256 19.9987Z" fill="white"/>
</g>
<g id="icon">
<path id="Vector_6" d="M38.0074 4.98019C37.4718 7.11356 35.3293 8.3391 33.2313 7.79441C31.1334 7.24972 29.4372 5.79723 30.4639 2.93761C31.1781 0.895019 33.1421 -0.42132 35.24 0.12337C37.3379 0.71345 38.5431 2.89221 38.0074 4.98019Z" fill="white"/>
<path id="Vector_7" d="M48.5652 18.5775C56.3149 29.1418 44.0219 47.2708 30.14 49.6311C17.5972 51.7645 4.99231 44.4761 1.24285 32.1298C-1.97097 21.69 1.15173 9.59906 9.40946 3.74365C14.4351 0.180001 21.1138 1.2836 21.6048 6.91206C22.9439 22.8896 42.2714 10.9065 48.5652 18.5775Z" fill="white"/>
</g>
</g>
</svg>

<svg xmlns="http://www.w3.org/2000/svg" width="190" height="50" fill="none" viewBox="0 0 190 50"><path fill="#fff" d="M62.258 41.032V11.817h6.893l8.325 28.28h.94l8.37-28.28h6.848v29.215h-3.402V15.196l.582-2.445h-.985l-8.414 28.28h-6.893l-8.415-28.28h-.94l.537 2.445v25.836zm36.076-10.317c0-3.023 1.029-5.603 3.043-7.648q3.021-3.068 7.922-3.068c3.223 0 5.864 1.023 7.878 3.068s3.044 4.58 3.044 7.648-1.03 5.603-3.044 7.649c-2.014 2.045-4.655 3.068-7.878 3.068q-4.9 0-7.922-3.068c-2.059-2.046-3.043-4.58-3.043-7.649m3.401 0q0 3.402 2.014 5.603c1.343 1.468 3.178 2.223 5.55 2.223 2.373 0 4.208-.755 5.551-2.223 1.342-1.512 1.969-3.38 1.969-5.603s-.671-4.09-1.969-5.558c-1.343-1.468-3.178-2.224-5.551-2.224-2.372 0-4.207.756-5.55 2.224-1.342 1.467-2.014 3.335-2.014 5.558m23.185 10.317V22.889c0-1.956.94-2.89 2.865-2.801l11.503.355v2.89l-10.966-.355v18.054zm18.441-20.589h3.401v3.024l-.537 2.357h.94c.493-1.734 1.432-3.113 2.82-4.18 1.432-1.067 3.267-1.6 5.55-1.6 2.954 0 5.326 1.022 7.161 3.023 1.836 2 2.731 4.58 2.731 7.693s-.895 5.647-2.731 7.648-4.207 3.024-7.161 3.024c-2.238 0-4.118-.534-5.55-1.601s-2.372-2.446-2.865-4.18h-.94l.538 2.312v10.583h-3.402V20.443zm3.401 10.317c0 2.579.716 4.535 2.194 5.825s3.312 1.956 5.594 1.956c2.238 0 4.073-.667 5.416-1.956 1.343-1.29 2.059-3.246 2.059-5.825s-.671-4.536-2.059-5.87c-1.343-1.334-3.178-1.957-5.416-1.957-2.282 0-4.162.668-5.594 1.957-1.478 1.29-2.194 3.246-2.194 5.87m35.494-10.761c2.417 0 4.297.711 5.685 2.134 1.343 1.423 2.059 3.513 2.059 6.314v12.585h-3.402v-12.14c0-2.134-.403-3.646-1.253-4.58-.851-.934-2.193-1.378-3.984-1.378-2.238 0-4.028.8-5.416 2.445-1.387 1.645-2.058 3.824-2.058 6.537v9.116h-3.402v-30.46h3.402V24l-.538 2.357h.94c.448-1.913 1.343-3.469 2.686-4.625s3.088-1.734 5.281-1.734M38.007 4.98c-.535 2.134-2.678 3.36-4.776 2.814-2.098-.544-3.794-1.997-2.767-4.856.714-2.043 2.678-3.36 4.776-2.815 2.098.59 3.303 2.77 2.767 4.857m10.558 13.598c7.75 10.564-4.543 28.693-18.425 31.053C17.597 51.764 4.992 44.476 1.243 32.13-1.971 21.69 1.152 9.6 9.409 3.744 14.435.18 21.114 1.284 21.605 6.912c1.339 15.978 20.666 3.994 26.96 11.666"/></svg>
